X:66
T:Overture in D Major - Rondeau
C:Telemann, G.P.
M:4/4
L:1/8
Q:1/4=108
K:D
|:A2|d4 de f2|e2 dc B2 A2|G4 GA B2|A2 GF E2 D2|
F4 FG A2|G2 FE D2 C2|D4 EF G2|F4 F2:|

